svgs/sharp-thin/chess-rook.svg

<svg xmlns="http://www.w3.org/2000/svg" viewBox="0 0 448 512"><!--! Font Awesome Pro 6.6.0 by @fontawesome - https://fontawesome.com License - https://fontawesome.com/license (Commercial License) Copyright 2024 Fonticons, Inc. --><path d="M40 32l-8 0 0 8 0 160 0 3.3 2.3 2.3 53.5 53.5L80.9 384l16 0L104 256.4l.2-3.6-2.5-2.5L48 196.7 48 48l64 0 0 48 0 8 8 0 64 0 8 0 0-8 0-48 64 0 0 48 0 8 8 0 64 0 8 0 0-8 0-48 64 0 0 148.7-53.7 53.7-2.5 2.5 .2 3.6L351.1 384l16 0-6.9-124.9 53.5-53.5 2.3-2.3 0-3.3 0-160 0-8-8 0-80 0-8 0 0 8 0 48-48 0 0-48 0-8-8 0-80 0-8 0 0 8 0 48-48 0 0-48 0-8-8 0L40 32zM184 216l0 64 0 8 8 0 64 0 8 0 0-8 0-64c0-22.1-17.9-40-40-40s-40 17.9-40 40zm40-24c13.3 0 24 10.7 24 24l0 56-48 0 0-56c0-13.3 10.7-24 24-24zM48 496l0-20.5L87.1 432l273.7 0L400 475.5l0 20.5L48 496zm-16 0l0 16 16 0 352 0 16 0 0-16 0-26.7L368 416 80 416 32 469.3 32 496z"/></svg>

<svg xmlns="http://www.w3.org/2000/svg" viewBox="0 0 448 512"><!--! Font Awesome Pro 6.5.2 by @fontawesome - https://fontawesome.com License - https://fontawesome.com/license (Commercial License) Copyright 2024 Fonticons, Inc. --><path d="M40 32H32v8V200v3.3l2.3 2.3 53.5 53.5L80.9 384h16L104 256.4l.2-3.6-2.5-2.5L48 196.7V48h64V96v8h8 64 8V96 48h64V96v8h8 64 8V96 48h64V196.7l-53.7 53.7-2.5 2.5 .2 3.6L351.1 384h16l-6.9-124.9 53.5-53.5 2.3-2.3V200 40 32h-8H328h-8v8V88H272V40 32h-8H184h-8v8V88H128V40 32h-8H40zM184 216v64 8h8 64 8v-8V216c0-22.1-17.9-40-40-40s-40 17.9-40 40zm40-24c13.3 0 24 10.7 24 24v56H200V216c0-13.3 10.7-24 24-24zM48 496V475.5L87.1 432H360.9L400 475.5V496H48zm-16 0v16H48 400h16V496 469.3L368 416H80L32 469.3V496z"/></svg>
